X:1047
T:Peggy O'Neil
C:Joe Buchanan's Scottish Tome - Page 633.3
I:633 3
Z:Carl Allison
R:Waltz
L:1/4
M:3/4
K:C
"C"(E2 G) | "F"(A2 c) | "C"(E G) | "G"A3 | "G"G3 | "F"(A G) A | "D7"(B>c) d | "G7"B A G | 
"F"(G2 G) | "Dm"(A2 B) | "F"(F2 G) | "Dm"A3 | "G"A3 | "G7"(B A) B | "C"E3- | E2 ({EFGA}) | 
"C"c z c | (c B A) | "G7"(B d B) | "C"G3 | ({GAB}) c z c | (c B A) | "G7"(B d B) | "C"G3 | 
"C"(E G) G | "G7"(A G) E | "F"(F A) c | "D7"(d c A) | c3 | "G"(B c d) | "C"c3- | c |]

